X:1
T:Sweet Lovely Joan
M:4/4
L:1/4
K:D
 B,| D3/2 E/2 F3/2 E/2| D B, B,3/2 A/2| d3/2 A/2 B3/2 A/2| G/2A/2 B z|\
 A| B3/2 A/2 B d| FF/2-E/2 D3/2 E/2| F3/2 F/2 C E|E/2-D/2 B, B,||
